X: 168
T:Loftus Jones
M:4/4
L:1/8
C:Turlough O'Carolan
S:IrTrad; David de la Barre, 4/97
B:Complete Collection of Carolan's Irish Tunes
K:A
|:a4 g2 f2|e2 d2 cd e2|cdBA A2 z2 |cdcB A2B2|
cd e2 de f2|e2 dc dcBA|GAGF E2 z2|ABAG F2 d2|
edec dcdB|A2 E2 F2 G2|A2 F2 G2 A2|B2 G2 A2 B2|c2 A2 B2 c2|
d4 e2 z2|dcBA GA B2|A2 ED C2 E2|A4 A2 z2 :|:
e2 G2 A2 F2|G2 E2 F2 G2|A2 B2 G2 c2|F4 G4|
c2 c2 B4|ABcd c2 B2|ABcd edcB|A2 G2 F4|
CFAF CFAF|EGEG EGEG|FAFA FAFA|GBGB GBGB|
AcAc AcAc|AcAc AcAc|fg a2 g4|f4 f2 g2|
aAaA gAgA|fAfA eAeA|dBdB cAcA|BAGF EF G2|
A2 ED C2 E2|BAGF E2 e2|dcBA GABG|A4 A2 z2 :|
